assets/Man shrugging/Default/Flat/man_shrugging_flat_default.svg

<svg width="32" height="32" viewBox="0 0 32 32" fill="none" xmlns="http://www.w3.org/2000/svg">
<path d="M19.9621 4.78018L19.5621 4.62018C19.2821 4.51018 19.0221 4.35018 18.7821 4.16018L17.9721 3.48018C17.3621 2.97018 16.5221 2.86018 15.8021 3.18018C15.3321 3.39018 14.8121 3.44018 14.3121 3.31018C13.6321 3.04018 12.8521 3.24018 12.3821 3.80018L11.5621 4.80018C11.3621 5.03018 11.1321 5.23018 10.8821 5.39018L10.5121 5.61018C9.84209 6.02018 9.52209 6.83018 9.73209 7.58018L10.4821 10.3102C10.5521 10.5802 11.0921 10.7502 11.0921 10.7502L20.2921 9.94018C20.2921 9.94018 20.7821 9.68018 20.8021 9.40018L21.0721 6.58018C21.1421 5.81018 20.6921 5.07018 19.9621 4.78018Z" fill="#F1A11E"/>
<path d="M6.59308 13.874L4.99377 14.4203V16.0603H8.31377V14.4203L6.59308 13.874Z" fill="#0092E7"/>
<path d="M27.0038 14.4203V16.0603H23.6738V14.4203L25.3366 13.902L27.0038 14.4203Z" fill="#0092E7"/>
<path d="M26.7538 15.4202H23.8738C23.4638 15.4202 23.1338 15.7502 23.1338 16.1602V18.6002C23.1338 18.7302 22.9938 18.8102 22.8738 18.7502L20.2938 17.3602C20.2538 17.3402 20.2138 17.3102 20.1738 17.2902L20.1238 17.2602C19.5038 16.9502 18.8038 16.7702 18.0538 16.7702H13.9638C13.2038 16.7702 12.4938 16.9502 11.8638 17.2802L9.09377 18.7402C8.99377 18.8102 8.84377 18.7302 8.84377 18.6002V16.1602C8.84377 15.7502 8.51377 15.4202 8.10377 15.4202H5.23377C4.82377 15.4202 4.49377 15.7502 4.49377 16.1602V21.2302C4.49377 22.2802 5.05377 23.2602 5.95377 23.7902C6.41377 24.0602 6.94377 24.2002 7.46377 24.2002C7.96377 24.2002 8.45377 24.0802 8.90377 23.8302L9.38377 23.5802V28.0102H22.6538V23.6102L23.0738 23.8302C23.5238 24.0802 24.0138 24.2002 24.5138 24.2002C25.0338 24.2002 25.5638 24.0602 26.0238 23.7902C26.9238 23.2602 27.4838 22.2802 27.4838 21.2302V16.1602C27.4938 15.7502 27.1638 15.4202 26.7538 15.4202Z" fill="#00A6ED"/>
<path d="M2.1438 11.9402L2.39206 12.2303C2.17218 12.4431 2.15033 12.798 2.35381 13.0403C2.35381 13.0403 2.54381 13.2603 2.89381 13.6703C3.30381 14.1503 3.90381 14.4203 4.53381 14.4203H8.31381V12.6103C8.31381 11.7503 8.00381 10.9303 7.43381 10.2803L6.94381 9.72027C6.67381 9.41027 6.20381 9.37027 5.89381 9.64027C5.58381 9.91027 5.55381 10.3803 5.81381 10.6903L6.14381 11.0703C6.21381 11.1403 6.15381 11.2603 6.05381 11.2603L5.19942 11.2503L4.2838 10.1803C4.0738 9.93027 3.6938 9.90027 3.4538 10.1203C3.38944 10.1743 3.33966 10.239 3.30481 10.3093C3.08958 10.1169 2.7618 10.1096 2.53381 10.3102C2.33485 10.4843 2.28021 10.7683 2.38697 11.0028C2.32138 11.0261 2.25914 11.0617 2.2038 11.1102C1.9538 11.3202 1.9338 11.6902 2.1438 11.9402Z" fill="#FFC83D"/>
<path d="M29.8538 11.9404L29.6003 12.2349C29.8158 12.4482 29.8362 12.8002 29.6438 13.0503C29.6438 13.0503 29.4538 13.2703 29.1038 13.6803C28.6938 14.1603 28.0938 14.4303 27.4638 14.4303H23.6838V12.6203C23.6838 11.7703 23.9938 10.9403 24.5538 10.2903L25.0438 9.73028C25.3138 9.42028 25.7838 9.38028 26.0938 9.65028C26.4038 9.92028 26.4438 10.3903 26.1738 10.7003L25.8438 11.0703C25.7738 11.1403 25.8338 11.2603 25.9338 11.2603L26.7928 11.2503L27.7138 10.1804C27.9238 9.93037 28.2938 9.91037 28.5438 10.1204C28.6066 10.1731 28.6549 10.236 28.6887 10.3045C28.904 10.1186 29.2279 10.1205 29.4539 10.3103C29.6605 10.4839 29.71 10.7667 29.6024 11.0008C29.6704 11.0247 29.7354 11.0613 29.7938 11.1104C30.0438 11.3204 30.0638 11.6904 29.8538 11.9404Z" fill="#FFC83D"/>
<path d="M15.9938 19.3103C14.9038 19.3103 14.0238 18.4303 14.0238 17.3403V15.0103C14.0238 13.9203 14.9038 13.0403 15.9938 13.0403C17.0838 13.0403 17.9638 13.9203 17.9638 15.0103V17.3403C17.9638 18.4303 17.0838 19.3103 15.9938 19.3103Z" fill="#FCB100"/>
<path d="M21.5038 10.5003C21.5038 11.3121 20.8457 11.9703 20.0338 11.9703C19.222 11.9703 18.5638 11.3121 18.5638 10.5003C18.5638 9.68841 19.222 9.03027 20.0338 9.03027C20.8457 9.03027 21.5038 9.68841 21.5038 10.5003Z" fill="#FDBB11"/>
<path d="M12.8937 11.2603C12.8937 12.0721 12.2356 12.7303 11.4237 12.7303C10.6119 12.7303 9.95374 12.0721 9.95374 11.2603C9.95374 10.4484 10.6119 9.79028 11.4237 9.79028C12.2356 9.79028 12.8937 10.4484 12.8937 11.2603Z" fill="#FDBB11"/>
<path d="M11.0791 10.7505C11.0835 10.7504 11.0878 10.7503 11.0922 10.7502C11.0922 10.7502 10.9722 9.97017 10.8922 9.46017C10.8522 9.20017 10.9322 8.94017 11.1122 8.75017L11.2622 8.59017C11.4722 8.37017 11.5722 8.07017 11.5522 7.76017L11.4822 6.98017C11.4622 6.76017 11.6022 6.56017 11.8122 6.48017C12.3722 6.29017 13.5822 5.93017 15.2922 5.78017C17.0022 5.63017 18.2522 5.77017 18.8322 5.86017C19.0522 5.89017 19.2222 6.07017 19.2322 6.30017L19.3022 7.08017C19.3322 7.38017 19.4822 7.66017 19.7322 7.85017L19.9222 7.99017C20.102 8.1272 20.2232 8.32292 20.2543 8.53962L20.3338 13.5502C20.3238 15.1402 19.1838 16.3702 17.6738 16.5002L14.7838 16.7502C13.2738 16.8802 11.9338 15.8702 11.6438 14.3102L11.0791 10.7505Z" fill="#FFC83D"/>
<path d="M18.3538 8.76011C18.4338 8.82011 18.5238 8.84011 18.6138 8.84011C18.7738 8.84011 18.9338 8.76011 19.0338 8.61011C19.1838 8.38011 19.1138 8.08011 18.8838 7.93011C18.8538 7.90011 18.0538 7.41011 16.9938 7.63011C16.7338 7.69011 16.5538 7.95011 16.6138 8.22011C16.6638 8.48011 16.9338 8.65011 17.1938 8.60011C17.8244 8.46634 18.2906 8.72513 18.3484 8.75717C18.3511 8.75866 18.3538 8.76011 18.3538 8.76011Z" fill="#D37034"/>
<path d="M12.0838 9.22022C12.1838 9.33022 12.3138 9.38022 12.4538 9.38022C12.5638 9.38022 12.6838 9.33022 12.7838 9.25022C12.7857 9.2493 12.7908 9.24544 12.7991 9.2392C12.8802 9.17826 13.2632 8.89022 13.8438 8.89022H13.9138C14.1738 8.89022 14.3938 8.68022 14.4038 8.41022C14.4138 8.14022 14.1938 7.91022 13.9238 7.90022C12.8238 7.87022 12.1438 8.49022 12.1138 8.52022C11.9138 8.70022 11.9038 9.01022 12.0838 9.22022Z" fill="#D37034"/>
<path d="M19.0738 10.3102C18.8938 9.78021 18.3638 9.42021 17.7738 9.47021C17.1638 9.52021 16.6938 10.0002 16.6338 10.5902C16.6238 10.7202 16.7338 10.8302 16.8638 10.8202L18.8638 10.6402C19.0238 10.6202 19.1238 10.4602 19.0738 10.3102Z" fill="white"/>
<path d="M12.3338 10.9101C12.4238 10.3501 12.8838 9.90008 13.4738 9.85008C14.0838 9.79008 14.6338 10.1801 14.7838 10.7501C14.8238 10.8701 14.7338 11.0001 14.6038 11.0101L12.6038 11.1901C12.4438 11.2101 12.3038 11.0701 12.3338 10.9101Z" fill="white"/>
<path d="M18.4738 10.4601C18.4338 10.0201 18.0438 9.69009 17.6038 9.73009C17.1638 9.77009 16.8338 10.1601 16.8738 10.6001C16.8838 10.6701 16.9038 10.7401 16.9238 10.8101L18.4638 10.6801C18.4738 10.6101 18.4838 10.5301 18.4738 10.4601Z" fill="#7D4533"/>
<path d="M12.9438 10.9402C12.9038 10.5002 13.2338 10.1102 13.6738 10.0702C14.1238 10.0302 14.5138 10.3602 14.5538 10.7902C14.5638 10.8702 14.5538 10.9402 14.5438 11.0102L12.9938 11.1502C12.9638 11.0802 12.9538 11.0102 12.9438 10.9402Z" fill="#7D4533"/>
<path d="M17.6437 10.0703C17.3937 10.0903 17.2037 10.3203 17.2237 10.5703C17.2237 10.6503 17.2537 10.7203 17.2937 10.7803L18.1137 10.7103C18.1337 10.6403 18.1537 10.5703 18.1437 10.4903C18.1237 10.2403 17.8937 10.0503 17.6437 10.0703Z" fill="black"/>
<path d="M13.7038 10.4101C13.9538 10.3901 14.1838 10.5801 14.2038 10.8301C14.2138 10.9101 14.2038 10.9801 14.1638 11.0501L13.3538 11.1201C13.3138 11.0601 13.2938 10.9901 13.2838 10.9101C13.2638 10.6601 13.4538 10.4301 13.7038 10.4101Z" fill="black"/>
<path d="M17.5438 10.2401C17.5438 10.3174 17.4811 10.3801 17.4038 10.3801C17.3265 10.3801 17.2638 10.3174 17.2638 10.2401C17.2638 10.1628 17.3265 10.1001 17.4038 10.1001C17.4811 10.1001 17.5438 10.1628 17.5438 10.2401Z" fill="white"/>
<path d="M13.5838 10.5802C13.5838 10.6575 13.5212 10.7202 13.4438 10.7202C13.3665 10.7202 13.3038 10.6575 13.3038 10.5802C13.3038 10.5029 13.3665 10.4402 13.4438 10.4402C13.5212 10.4402 13.5838 10.5029 13.5838 10.5802Z" fill="white"/>
<path d="M16.0038 14.6802C16.3517 14.6802 16.6338 14.3981 16.6338 14.0502C16.6338 13.7022 16.3517 13.4202 16.0038 13.4202C15.6558 13.4202 15.3738 13.7022 15.3738 14.0502C15.3738 14.3981 15.6558 14.6802 16.0038 14.6802Z" fill="#990839"/>
<path d="M15.3738 10.6602L15.0338 12.2102C14.9638 12.5302 15.2238 12.8202 15.5438 12.7902L16.2338 12.7302C16.5538 12.7002 16.7638 12.3702 16.6338 12.0702L16.0338 10.6102C15.9138 10.2802 15.4438 10.3202 15.3738 10.6602Z" fill="#ED9200"/>
</svg>

<svg xmlns="http://www.w3.org/2000/svg" width="32" height="32" fill="none"><path fill="#F1A11E" d="m19.962 4.78-.4-.16a3.08 3.08 0 0 1-.78-.46l-.81-.68c-.61-.51-1.45-.62-2.17-.3-.47.21-.99.26-1.49.13-.68-.27-1.46-.07-1.93.49l-.82 1c-.2.23-.43.43-.68.59l-.37.22c-.67.41-.99 1.22-.78 1.97l.75 2.73c.07.27.61.44.61.44l9.2-.81s.49-.26.51-.54l.27-2.82c.07-.77-.38-1.51-1.11-1.8Z"/><path fill="#0092E7" d="m6.593 13.874-1.6.546v1.64h3.32v-1.64l-1.72-.546ZM27.004 14.42v1.64h-3.33v-1.64l1.663-.518 1.667.518Z"/><path fill="#00A6ED" d="M26.754 15.42h-2.88c-.41 0-.74.33-.74.74v2.44c0 .13-.14.21-.26.15l-2.58-1.39c-.04-.02-.08-.05-.12-.07l-.05-.03c-.62-.31-1.32-.49-2.07-.49h-4.09c-.76 0-1.47.18-2.1.51l-2.77 1.46c-.1.07-.25-.01-.25-.14v-2.44c0-.41-.33-.74-.74-.74h-2.87c-.41 0-.74.33-.74.74v5.07c0 1.05.56 2.03 1.46 2.56.46.27.99.41 1.51.41.5 0 .99-.12 1.44-.37l.48-.25v4.43h13.27v-4.4l.42.22c.45.25.94.37 1.44.37.52 0 1.05-.14 1.51-.41a2.98 2.98 0 0 0 1.46-2.56v-5.07a.724.724 0 0 0-.73-.74Z"/><path fill="#FFC83D" d="m2.144 11.94.248.29a.596.596 0 0 0-.038.81s.19.22.54.63c.41.48 1.01.75 1.64.75h3.78v-1.81c0-.86-.31-1.68-.88-2.33l-.49-.56a.745.745 0 0 0-1.05-.08c-.31.27-.34.74-.08 1.05l.33.38c.07.07.01.19-.09.19l-.855-.01-.915-1.07a.578.578 0 0 0-.83-.06.586.586 0 0 0-.15.19.578.578 0 0 0-.77 0 .595.595 0 0 0-.147.693.587.587 0 0 0-.243.937ZM29.854 11.94l-.254.295a.62.62 0 0 1 .044.815s-.19.22-.54.63c-.41.48-1.01.75-1.64.75h-3.78v-1.81c0-.85.31-1.68.87-2.33l.49-.56a.745.745 0 0 1 1.13.97l-.33.37c-.07.07-.01.19.09.19l.859-.01.92-1.07c.21-.25.58-.27.83-.06a.568.568 0 0 1 .146.185.59.59 0 0 1 .913.696.587.587 0 0 1 .251.94Z"/><path fill="#FCB100" d="M15.994 19.31c-1.09 0-1.97-.88-1.97-1.97v-2.33c0-1.09.88-1.97 1.97-1.97 1.09 0 1.97.88 1.97 1.97v2.33c0 1.09-.88 1.97-1.97 1.97Z"/><path fill="#FDBB11" d="M21.504 10.5a1.47 1.47 0 1 1-2.94 0 1.47 1.47 0 0 1 2.94 0ZM12.894 11.26a1.47 1.47 0 1 1-2.94 0 1.47 1.47 0 0 1 2.94 0Z"/><path fill="#FFC83D" d="M11.08 10.75h.012l-.2-1.29c-.04-.26.04-.52.22-.71l.15-.16c.21-.22.31-.52.29-.83l-.07-.78c-.02-.22.12-.42.33-.5.56-.19 1.77-.55 3.48-.7 1.71-.15 2.96-.01 3.54.08.22.03.39.21.4.44l.07.78c.03.3.18.58.43.77l.19.14c.18.137.301.333.332.55l.08 5.01c-.01 1.59-1.15 2.82-2.66 2.95l-2.89.25c-1.51.13-2.85-.88-3.14-2.44l-.565-3.56Z"/><path fill="#D37034" d="M18.354 8.76c.08.06.17.08.26.08.16 0 .32-.08.42-.23.15-.23.08-.53-.15-.68-.03-.03-.83-.52-1.89-.3a.5.5 0 0 0-.38.59c.05.26.32.43.58.38.63-.134 1.097.125 1.154.157a.616.616 0 0 0 .006.003ZM12.084 9.22c.1.11.23.16.37.16.11 0 .23-.05.33-.13.002 0 .007-.005.015-.01.081-.062.464-.35 1.045-.35h.07a.495.495 0 0 0 .01-.99c-1.1-.03-1.78.59-1.81.62a.5.5 0 0 0-.03.7Z"/><path fill="#fff" d="M19.074 10.31c-.18-.53-.71-.89-1.3-.84-.61.05-1.08.53-1.14 1.12-.01.13.1.24.23.23l2-.18c.16-.02.26-.18.21-.33ZM12.334 10.91c.09-.56.55-1.01 1.14-1.06.61-.06 1.16.33 1.31.9.04.12-.05.25-.18.26l-2 .18c-.16.02-.3-.12-.27-.28Z"/><path fill="#7D4533" d="M18.474 10.46a.805.805 0 0 0-.87-.73c-.44.04-.77.43-.73.87.01.07.03.14.05.21l1.54-.13c.01-.07.02-.15.01-.22ZM12.944 10.94c-.04-.44.29-.83.73-.87.45-.04.84.29.88.72.01.08 0 .15-.01.22l-1.55.14a.802.802 0 0 1-.05-.21Z"/><path fill="#000" d="M17.644 10.07c-.25.02-.44.25-.42.5 0 .08.03.15.07.21l.82-.07c.02-.07.04-.14.03-.22a.467.467 0 0 0-.5-.42ZM13.704 10.41c.25-.02.48.17.5.42.01.08 0 .15-.04.22l-.81.07a.467.467 0 0 1 .35-.71Z"/><path fill="#fff" d="M17.544 10.24a.14.14 0 1 1-.28 0 .14.14 0 0 1 .28 0ZM13.584 10.58a.14.14 0 1 1-.28 0 .14.14 0 0 1 .28 0Z"/><path fill="#990839" d="M16.004 14.68a.63.63 0 1 0 0-1.26.63.63 0 0 0 0 1.26Z"/><path fill="#ED9200" d="m15.374 10.66-.34 1.55c-.07.32.19.61.51.58l.69-.06c.32-.03.53-.36.4-.66l-.6-1.46c-.12-.33-.59-.29-.66.05Z"/></svg>
